svg/fluentui-system-icons/ic_fluent_arrow_circle_down_24_filled.svg

<svg width="24" height="24" viewBox="0 0 24 24" fill="none" xmlns="http://www.w3.org/2000/svg">
<path d="M1.99902 12C1.99902 17.5228 6.47617 22 11.999 22C17.5219 22 21.999 17.5228 21.999 12C21.999 6.47715 17.5219 2 11.999 2C6.47618 2 1.99902 6.47715 1.99902 12ZM16.5297 11.7199C16.796 11.9862 16.8202 12.4028 16.6023 12.6964L16.5297 12.7805L12.5289 16.7814C12.2626 17.0477 11.8459 17.0718 11.5523 16.8539L11.4681 16.7813L7.46814 12.7797C7.1753 12.4868 7.17539 12.0119 7.46834 11.7191C7.73466 11.4529 8.15132 11.4287 8.44489 11.6466L8.529 11.7193L11.2497 14.4412L11.2494 7.74951C11.2494 7.36982 11.5315 7.05602 11.8976 7.00636L11.9994 6.99951C12.3791 6.99951 12.6929 7.28167 12.7425 7.64774L12.7494 7.74951L12.7497 14.4392L15.4691 11.7199C15.7353 11.4536 16.152 11.4294 16.4456 11.6473L16.5297 11.7199Z" fill="#212121"/>
</svg>

<svg xmlns="http://www.w3.org/2000/svg" width="24" height="24"><path d="M1.999 12c0 5.523 4.477 10 10 10s10-4.477 10-10-4.477-10-10-10-10 4.477-10 10Zm14.53-.28a.75.75 0 0 1 .073.976l-.072.085-4.001 4a.75.75 0 0 1-.977.073l-.084-.073-4-4.001a.75.75 0 0 1 .977-1.133l.084.072 2.72 2.722V7.75a.75.75 0 0 1 .649-.744L11.999 7a.75.75 0 0 1 .743.648l.007.102v6.69l2.72-2.72a.75.75 0 0 1 .977-.073l.084.073Z"/></svg>
